src/pos-icons/arm-flex.svg

<svg height="24" viewBox="0 0 24 24" width="24" xmlns="http://www.w3.org/2000/svg"><path d="m3 18.34s1-11.25 4-15.34l5 1-1 3.09h-2v7.16h1c2-3.07 6.14-4.19 8.64-3.07 3.3 1.53 3 6.14 0 8.18-2.4 1.64-9.64 3.07-15.64-1.02z"/></svg>

<?xml version="1.0" encoding="UTF-8"?><!DOCTYPE svg PUBLIC "-//W3C//DTD SVG 1.1//EN" "http://www.w3.org/Graphics/SVG/1.1/DTD/svg11.dtd"><svg xmlns="http://www.w3.org/2000/svg" xmlns:xlink="http://www.w3.org/1999/xlink" version="1.1" id="mdi-arm-flex" width="24" height="24" viewBox="0 0 24 24"><path d="M3 18.34C3 18.34 4 7.09 7 3L12 4L11 7.09H9V14.25H10C12 11.18 16.14 10.06 18.64 11.18C21.94 12.71 21.64 17.32 18.64 19.36C16.24 21 9 22.43 3 18.34Z" /></svg>
